svg/dna.svg

<svg xmlns="http://www.w3.org/2000/svg" viewBox="0 0 41 64" enable-background="new 0 0 41 64"><style type="text/css">.st0{fill:#333333;}</style><title>dna</title><desc>Created with Sketch.</desc><path class="st0" d="M23.8 32c5.8-5.5 17.2-17.6 17.2-27.5 0-1.5-.1-3-.4-4.5h-5.3c.2 1.2.3 2.5.3 3.8 0 .4 0 .8-.1 1.2h-30l-.1-1.2c0-1.3.1-2.5.3-3.8h-5.3c-.3 1.5-.4 3-.4 4.5 0 9.9 11.4 22 17.2 27.5-5.8 5.5-17.2 17.6-17.2 27.5 0 1.5.1 3 .4 4.5h5.4c-.2-1.2-.3-2.5-.3-3.8 0-.4 0-.8.1-1.2h30.1l.1 1.2c0 1.3-.1 2.5-.3 3.8h5.3c.2-1.5.4-3 .4-4.5-.2-9.9-11.6-22-17.4-27.5zm-17.3-23h28.1c-.8 2.3-2.1 4.7-3.6 7h-20.9c-1.4-2.3-2.7-4.7-3.6-7zm6.4 11h15.3c-3.8 5-7.7 8.8-7.7 8.8s-3.8-3.8-7.6-8.8zm7.7 15.2s3.8 3.7 7.7 8.8h-15.4c3.8-5 7.7-8.8 7.7-8.8zm-14.1 19.8c.8-2.3 2.1-4.7 3.6-7h20.9c1.5 2.3 2.8 4.7 3.6 7h-28.1z"/></svg>

<svg xmlns="http://www.w3.org/2000/svg" viewBox="0 0 41 64"><path d="M23.8 32C29.6 26.5 41 14.4 41 4.5c0-1.5-.1-3-.4-4.5h-5.3c.2 1.2.3 2.5.3 3.8 0 .4 0 .8-.1 1.2h-30l-.1-1.2c0-1.3.1-2.5.3-3.8H.4C.1 1.5 0 3 0 4.5c0 9.9 11.4 22 17.2 27.5C11.4 37.5 0 49.6 0 59.5c0 1.5.1 3 .4 4.5h5.4c-.2-1.2-.3-2.5-.3-3.8 0-.4 0-.8.1-1.2h30.1l.1 1.2c0 1.3-.1 2.5-.3 3.8h5.3c.2-1.5.4-3 .4-4.5-.2-9.9-11.6-22-17.4-27.5zM6.5 9h28.1c-.8 2.3-2.1 4.7-3.6 7H10.1c-1.4-2.3-2.7-4.7-3.6-7zm6.4 11h15.3c-3.8 5-7.7 8.8-7.7 8.8S16.7 25 12.9 20zm7.7 15.2s3.8 3.7 7.7 8.8H12.9c3.8-5 7.7-8.8 7.7-8.8zM6.5 55c.8-2.3 2.1-4.7 3.6-7H31c1.5 2.3 2.8 4.7 3.6 7H6.5z" fill="#333"/></svg>
